assets/icons/blood.svg

<svg width="24" height="25" viewBox="0 0 24 25" fill="none" xmlns="http://www.w3.org/2000/svg">
<g clip-path="url(#clip0_1_69)">
<mask id="mask0_1_69" style="mask-type:luminance" maskUnits="userSpaceOnUse" x="0" y="0" width="24" height="25">
<path d="M24 0.666382H1.52588e-05V24.6664H24V0.666382Z" fill="white"/>
</mask>
<g mask="url(#mask0_1_69)">
<path opacity="0.4" d="M1.96066 8.35618C3.13726 9.14065 4.68836 9.57265 6.32814 9.57265C7.96795 9.57265 9.51901 9.14065 10.6956 8.35618C11.96 7.51325 12.6563 6.36385 12.6563 5.11951C12.6563 3.87516 11.96 2.72574 10.6956 1.88284C9.51901 1.09838 7.96795 0.666382 6.32814 0.666382C4.68836 0.666382 3.13726 1.09838 1.96066 1.88284C0.696342 2.72574 1.52588e-05 3.87516 1.52588e-05 5.11951C1.52588e-05 6.36385 0.696342 7.51325 1.96066 8.35618ZM3.13061 4.5541C3.44279 4.32315 3.8831 4.38919 4.114 4.70147C4.20002 4.80652 4.9397 5.35388 6.32814 5.35388C7.71695 5.35388 8.45628 4.80662 8.54428 4.6989C8.77508 4.38662 9.21435 4.32197 9.52661 4.55265C9.83895 4.78346 9.90395 5.22512 9.67315 5.5374C9.30988 6.02888 8.11935 6.76013 6.32814 6.76013C4.53724 6.76013 3.34661 6.02897 2.98324 5.53753C2.75238 5.22525 2.81833 4.78496 3.13061 4.5541ZM8.63435 16.032C7.47481 14.8726 6.07257 14.0812 4.68587 13.8039C3.19586 13.506 1.89072 13.8264 1.01083 14.7062C0.130984 15.5861 -0.189453 16.8912 0.108578 18.3812C0.38589 19.7679 1.17719 21.1702 2.33669 22.3297C3.49619 23.4892 4.89845 24.2805 6.28515 24.5578C7.77515 24.8558 9.08028 24.5354 9.96021 23.6555C10.8401 22.7756 11.1605 21.4705 10.8625 19.9804C10.5851 18.5938 9.79381 17.1916 8.63435 16.032ZM7.55528 21.8416C6.95088 21.9324 5.59197 21.6076 4.32541 20.341C3.05903 19.0746 2.73414 17.7157 2.8247 17.1112C2.88226 16.7272 3.24025 16.4625 3.62429 16.52C4.00834 16.5776 4.273 16.9356 4.21548 17.3196C4.20203 17.4547 4.33802 18.3648 5.31981 19.3466C6.30184 20.3286 7.21161 20.4644 7.35001 20.4505C7.73408 20.3928 8.09035 20.6578 8.14802 21.0416C8.20562 21.4258 7.93935 21.784 7.55528 21.8416Z" fill="white"/>
<path d="M22.788 6.56451C21.7311 5.50757 20.1561 5.12408 18.353 5.4847C16.6533 5.82463 14.9323 6.79668 13.5073 8.2218C12.0821 9.64687 11.1101 11.3678 10.7701 13.0675C10.4095 14.8706 10.793 16.4456 11.8499 17.5025C12.9069 18.5595 14.4819 18.943 16.2849 18.5823C17.9847 18.2424 19.7056 17.2704 21.1307 15.8453C22.5558 14.4201 23.5279 12.6992 23.8679 10.9995C24.2285 9.19647 23.8449 7.62147 22.788 6.56451ZM21.0215 10.8121C20.8149 11.5501 20.3213 12.6773 19.1421 13.8566C17.9627 15.0359 16.8355 15.5296 16.0975 15.7361C15.1011 16.0149 14.2567 15.9319 13.8387 15.5138C13.5641 15.2393 13.5641 14.7941 13.8387 14.5195C14.0954 14.2628 14.5011 14.2461 14.7772 14.4692C14.8855 14.499 15.2745 14.5365 15.9099 14.3229C16.4438 14.1435 17.2653 13.7445 18.1476 12.8621C19.0298 11.98 19.4288 11.1585 19.6083 10.6246C19.8219 9.98907 19.7843 9.60007 19.7547 9.49174C19.5315 9.2156 19.5483 8.80987 19.8049 8.5532C20.0795 8.2786 20.5247 8.2786 20.7993 8.5532C21.2173 8.97127 21.3003 9.81574 21.0215 10.8121Z" fill="white"/>
</g>
</g>
<defs>
<clipPath id="clip0_1_69">
<rect width="24" height="24" fill="white" transform="translate(1.52588e-05 0.666382)"/>
</clipPath>
</defs>
</svg>

<svg xmlns="http://www.w3.org/2000/svg" width="24" height="25" fill="none" viewBox="0 0 24 25"><g clip-path="url(#a)"><mask id="b" width="24" height="25" x="0" y="0" maskUnits="userSpaceOnUse" style="mask-type:luminance"><path fill="#fff" d="M24 .666H0v24h24z"/></mask><g fill="#fff" mask="url(#b)"><path d="M1.96 8.356c1.177.785 2.728 1.217 4.368 1.217s3.191-.432 4.368-1.217c1.264-.843 1.96-1.992 1.96-3.236s-.696-2.394-1.96-3.237C9.519 1.098 7.968.666 6.328.666s-3.19.432-4.367 1.217C.696 2.726 0 3.875 0 5.12c0 1.244.696 2.393 1.96 3.236m1.17-3.802a.703.703 0 0 1 .984.147c.086.106.826.653 2.214.653 1.389 0 2.128-.547 2.216-.655a.7.7 0 0 1 .983-.146c.312.23.377.672.146.984C9.31 6.03 8.12 6.76 6.328 6.76c-1.79 0-2.981-.731-3.345-1.222a.703.703 0 0 1 .148-.984m5.504 11.478c-1.16-1.16-2.561-1.95-3.948-2.228-1.49-.298-2.795.022-3.675.902s-1.2 2.185-.902 3.675c.277 1.387 1.068 2.79 2.228 3.949 1.16 1.16 2.561 1.95 3.948 2.228 1.49.298 2.795-.023 3.675-.902.88-.88 1.2-2.185.902-3.676-.277-1.386-1.068-2.788-2.228-3.948m-1.079 5.81c-.604.09-1.963-.234-3.23-1.501s-1.59-2.625-1.5-3.23a.703.703 0 0 1 1.39.209c-.013.135.123 1.045 1.105 2.027s1.892 1.117 2.03 1.104a.7.7 0 0 1 .798.59.705.705 0 0 1-.593.8" opacity="0.4"/><path d="M22.788 6.565c-1.057-1.057-2.632-1.44-4.435-1.08-1.7.34-3.42 1.312-4.846 2.737-1.425 1.425-2.397 3.146-2.737 4.846-.36 1.803.023 3.378 1.08 4.435s2.632 1.44 4.435 1.08c1.7-.34 3.42-1.313 4.846-2.738C22.556 14.42 23.528 12.7 23.868 11c.36-1.803-.023-3.378-1.08-4.434m-1.767 4.247c-.206.738-.7 1.865-1.879 3.045s-2.306 1.673-3.044 1.88c-.997.278-1.841.195-2.26-.223a.703.703 0 0 1 .94-1.045c.107.03.496.068 1.132-.146.534-.18 1.355-.578 2.238-1.46.882-.883 1.28-1.704 1.46-2.238.214-.636.176-1.025.147-1.133a.703.703 0 0 1 1.044-.939c.418.418.501 1.263.223 2.26"/></g></g><defs><clipPath id="a"><path fill="#fff" d="M0 .666h24v24H0z"/></clipPath></defs></svg>
